X: 064
T: Miss Jean Maxwell of Monreith's Reel
C: attr. John French (1753-1803)
R: reel
B: "John French Collection", John French ed. p.6 #4
S: http://www.heallan.com/french.asp
Z: 2012 John Chambers <jc:trillian.mit.edu>
M: C
L: 1/8
K: Em
F |\
EBGA FD-DF | EBGB EBGB | dfAc FDAF | GBAF GE-E :|
e |\
Begb fd-df | Bege bege | Begb fd-df | gbfa ge-eg |
Begb fd-df | Bege bege | dfAd FDAF | GBAc BE-E |]

%%sep 2 1 500
%%sep 1 1 500

